packages/foundations/assets/icons/functional/images/buildings/market_24_filled.svg

<svg xmlns="http://www.w3.org/2000/svg" width="20" height="20" fill="none"><path fill="#1A1C1F" fill-rule="evenodd" d="M3.933 2.055c-.263.092-.516.319-.605.545-.068.17-1.24 4.024-1.282 4.217-.184.828.212 1.794.933 2.276.435.291.908.426 1.388.396.642-.041 1.258-.354 1.626-.827.083-.108.162-.195.174-.195a.5.5 0 0 1 .119.137c.256.369.848.745 1.331.846.72.15 1.498-.073 2.012-.577a4 4 0 0 0 .299-.323l.072-.1.072.1c.04.055.174.2.299.323.269.264.711.5 1.079.577.849.177 1.747-.168 2.296-.883l.089-.117.071.1c.185.26.528.548.835.699.397.196.709.263 1.126.241a2.17 2.17 0 0 0 1.49-.68 2.24 2.24 0 0 0 .595-2.01c-.066-.302-1.228-4.088-1.304-4.249a1.06 1.06 0 0 0-.467-.454l-.164-.08-5.967-.007c-5.347-.006-5.982-.002-6.117.045M3 13.246v2.745l-.142.022a1.02 1.02 0 0 0-.791.644.996.996 0 0 0 .578 1.272l.191.071h14.328l.191-.071a.996.996 0 0 0 .578-1.272 1.02 1.02 0 0 0-.791-.644L17 15.991V10.5H3z"/></svg>

<svg width="20" height="20" viewBox="0 0 20 20" fill="none" xmlns="http://www.w3.org/2000/svg"><path d="M3.933 2.055 C 3.670 2.147,3.417 2.374,3.328 2.600 C 3.260 2.770,2.088 6.624,2.046 6.817 C 1.862 7.645,2.258 8.611,2.979 9.093 C 3.414 9.384,3.887 9.519,4.367 9.489 C 5.009 9.448,5.625 9.135,5.993 8.662 C 6.076 8.554,6.155 8.467,6.167 8.467 C 6.180 8.467,6.234 8.528,6.286 8.604 C 6.542 8.973,7.134 9.349,7.617 9.450 C 8.337 9.600,9.115 9.377,9.629 8.873 C 9.754 8.750,9.888 8.605,9.928 8.550 L 10.000 8.450 10.072 8.550 C 10.112 8.605,10.246 8.750,10.371 8.873 C 10.640 9.137,11.082 9.373,11.450 9.450 C 12.299 9.627,13.197 9.282,13.746 8.567 L 13.835 8.450 13.906 8.550 C 14.091 8.810,14.434 9.098,14.741 9.249 C 15.138 9.445,15.450 9.512,15.867 9.490 C 16.447 9.460,16.942 9.235,17.357 8.810 C 17.875 8.281,18.105 7.505,17.952 6.800 C 17.886 6.498,16.724 2.712,16.648 2.551 C 16.564 2.374,16.380 2.196,16.181 2.097 L 16.017 2.017 10.050 2.010 C 4.703 2.004,4.068 2.008,3.933 2.055 M3.000 13.246 L 3.000 15.991 2.858 16.013 C 2.500 16.069,2.194 16.318,2.067 16.657 C 1.878 17.162,2.140 17.740,2.645 17.929 L 2.836 18.000 10.000 18.000 L 17.164 18.000 17.355 17.929 C 17.860 17.740,18.122 17.162,17.933 16.657 C 17.806 16.318,17.500 16.069,17.142 16.013 L 17.000 15.991 17.000 13.246 L 17.000 10.500 10.000 10.500 L 3.000 10.500 3.000 13.246 " fill="#1A1C1F" stroke="none" fill-rule="evenodd"></path></svg>
